X:1
T:Langdon, 87.87.66.66
T:Lowell Mason, 1845
T:Langdon, 87.87.66.66
T:Public Domain
C:Lowell Mason, 1845
Z:Public Domain
%%score ( 1 2 ) ( 3 4 )
L:1/8
M:4/4
K:G
V:1 treble 
V:2 treble 
V:3 bass 
V:4 bass 
V:1
 x8 |: [DG]4 [DG]4 | [DG]2 [DG]2 [DG]2 [DG]2 | [FA]4 [FA]4 | z4 [FA]3 [FA] | [GB]4 G4 | [Fd]8- | %7
 [Fd]4 [DF]4 | [DG]6 z2 :| [Gd]3 [Gd] [Gd]3 [Gd] | [Gd]4 [GB]4 | [Ge]3 [Ge] [Ge]3 [Ge] | %12
 [Ge]4 [Gc]2 [FA]2 | [GB]6 [FA]2 | [EG]4 G4 | [FA]6 [DF]2 | [EG]6 [EG]2 | [EG]4 [DF]4 | [DG]8 |] %19
V:2
 x8 |: x8 | x8 | x8 | x8 | x4 G4 | x8 | x8 | x8 :| x8 | x8 | x8 | x8 | x8 | x4 G4 | x8 | x8 | x8 | %18
 x8 |] %19
V:3
 x8 |: [G,B,]4 [G,B,]4 | [G,B,]2 [G,B,]2 [G,B,]2 [G,B,]2 | [D,D]4 [D,D]4 | z4 [D,D]3 [D,D] | %5
 [G,D]4 [E,G,]4 | [D,A,]8- | [D,A,]4 [D,A,]4 | [G,B,]6 z2 :| [G,B,]3 [G,B,] [G,B,]3 [G,B,] | %10
 [G,B,]4 G,4 | [C,C]3 [C,C] [C,C]3 [C,C] | [C,C]4 [C,E]2 [D,D]2 | [G,D]6 [D,D]2 | [E,B,]4 [E,B,]4 | %15
 [D,D]6 [D,A,]2 | [E,B,]6 [E,B,]2 | [C,C]4 [D,D]4 | [G,,G,D]8 |] %19
V:4
 x8 |: x8 | x8 | x8 | x8 | x8 | x8 | x8 | x8 :| x8 | x4 G,4 | x8 | x8 | x8 | x8 | x8 | x8 | x8 | %18
 x8 |] %19

